app/_includes/svgs/technology-logos/logo_gridset app.min.svg

<svg xmlns="http://www.w3.org/2000/svg" viewBox="0 0 150 100" enable-background="new 0 0 150 100"><g fill="#FBEE00"><path d="M0 .2h15v73.5h-15z"/><path d="M27.1.2h22.7v73.5h-22.7z"/><path d="M63.4.2h30.6v73.5h-30.6z"/></g></svg>

<svg xmlns="http://www.w3.org/2000/svg" viewBox="0 0 150 100" enable-background="new 0 0 150 100"><g fill="#FBEE00"><path d="M0 0.2H15V73.7H0z"/><path d="M27.1 0.2H49.8V73.7H27.1z"/><path d="M63.4 0.2H94V73.7H63.4z"/></g></svg>
